src/assets/icons/person5.svg

<?xml version="1.0" encoding="UTF-8"?>
<svg fill="none" viewBox="0 0 120 120" xmlns="http://www.w3.org/2000/svg">
<g clip-path="url(#a)">
<path d="m120 60c0-33.132-26.868-60-60-60s-60 26.868-60 60 26.868 60 60 60 60-26.868 60-60z" fill="#A3D5E0"/>
<path d="m59.928 80.629c-18.67 0-33.64 5.3446-35.405 11.923-0.7981 2.9504-1.6929 8.5126-2.4426 13.906 10.326 8.44 23.555 13.519 37.944 13.519s27.594-5.079 37.944-13.519c-0.7739-5.393-1.6687-10.979-2.4426-13.906-1.8138-6.578-16.953-11.923-35.598-11.923z" fill="#019897"/>
<path d="m48.077 81.378s-4.6433 10.641 11.85 10.641c16.493 0 12.019-10.641 12.019-10.641l-11.947-1.4027-11.923 1.4027z" fill="#D0EAEF"/>
<path d="m69.408 68.222h-18.815c2.9263 8.8513 0.2419 12.89 0.2419 12.89l6.5054 3.1197h5.3204l6.5055-3.1197s-2.6844-4.0387 0.2418-12.89z" fill="#E2A379"/>
<path d="m79.299 42.37c0-22.346-8.6336-27.473-19.299-27.473-10.641 0-19.299 5.127-19.299 27.473 0 7.5695 1.3542 13.495 3.3857 18.065 4.4498 10.06 12.164 13.567 15.913 13.567s11.439-3.5066 15.913-13.567c2.0314-4.5707 3.3857-10.496 3.3857-18.065z" fill="#F4B382"/>
<path d="m60 14.897c-11.778 0-20 6.1911-20 28.537 0 0 20-11.1 20-19.226v-9.3108z" fill="#F2DE7C"/>
<path d="m59.976 14.897c11.778 0 20.024 6.1911 20.024 28.537 0 0-20-11.1-20-19.226l-0.0242-9.3108z" fill="#F2DE7C"/>
<path d="m41.064 19.371c0 1.9347-0.919 17.316-0.919 17.316h39.782s-0.919-15.381-0.919-17.316c0-0.9673-8.0048-5.1995-18.791-5.1995-10.883 0-19.154 4.2322-19.154 5.1995z" fill="#019897"/>
<path d="m50.834 81.112s-3.5792 8.8755 9.0931 8.8755 9.2382-8.8755 9.2382-8.8755l-9.2382-4.4498-9.0931 4.4498z" fill="#E2A379"/>
<path d="m38.863 50.23c1.0399 6.0943 2.3216 6.3603 4.1838 6.0459l-1.9589-13.253c-1.8622 0.3386-3.2649 1.1366-2.2249 7.2068z" fill="#F4B382"/>
<path d="m78.96 43.047-1.9589 13.253c1.838 0.3144 3.1439 0.0242 4.1838-6.046 1.0157-6.0943-0.3869-6.8923-2.2249-7.2067z" fill="#F4B382"/>
<path d="m42.273 44.28c-0.0968-0.6529-0.121-1.2575-0.0968-1.717 0.0242-0.7013 0.1209-1.1367 0.1209-1.1367l-2.2732 0.8465v1.0399s0.2418-0.0726 0.6771-0.2177c-0.0242 0-0.0484 0.0242-0.0725 0.0242 0.3144 0.5321 0.7013 1.3543 1.0882 2.5393-0.0241 0 0.8707 0.653 0.5563-1.3785z" fill="#F2DE7C"/>
<path d="m77.848 42.564c0.0242 0.4837 0 1.0641-0.0967 1.717-0.3144 2.0315 0.5562 1.3785 0.5562 1.3785 0.3628-1.2092 0.7739-2.0072 1.0641-2.5393 0.3869 0.1451 0.6046 0.1935 0.6046 0.1935v-1.0399l-2.2491-0.8465s0.0967 0.4354 0.1209 1.1367z" fill="#F2DE7C"/>
<path d="m75.986 49.649-15.986-2.4667-15.986 2.4667v10.592h0.0242c0.0242 0.0484 0.0242 0.121 0.0484 0.1935 4.4498 10.06 12.164 13.567 15.913 13.567s11.439-3.5066 15.913-13.567c0.0241-0.0725 0.0483-0.1209 0.0483-0.1935h0.0242v-10.592z" fill="#E4F0F2"/>
<path d="m75.284 50.738c-0.0725 0-0.1451-0.0242-0.1934-0.0483-0.2419-0.121-0.3386-0.4112-0.2419-0.653l3.6276-7.8114c0.1209-0.2418 0.4111-0.3386 0.653-0.2418 0.2418 0.1209 0.3385 0.4111 0.2418 0.6529l-3.6276 7.8114c-0.0967 0.1693-0.266 0.2902-0.4595 0.2902z" fill="#E4F0F2"/>
<path d="m44.716 50.738c-0.1934 0-0.3627-0.0967-0.4353-0.2902l-3.6275-7.8114c-0.121-0.2418 0-0.532 0.2418-0.6529s0.532 0 0.653 0.2418l3.6275 7.8114c0.121 0.2418 0 0.532-0.2418 0.6529-0.0967 0.0242-0.1693 0.0484-0.2177 0.0484z" fill="#E4F0F2"/>
</g>
<defs>
<clipPath id="a">
<rect width="120" height="120" fill="#fff"/>
</clipPath>
</defs>
</svg>

<svg width="120" height="120" viewBox="0 0 120 120" fill="none" xmlns="http://www.w3.org/2000/svg">
<g clip-path="url(#clip0_2_54)">
<path d="M120 60C120 26.8682 93.1318 0 60 0C26.8682 0 0 26.8682 0 60C0 93.1318 26.8682 120 60 120C93.1318 120 120 93.1318 120 60Z" fill="#A3D5E0"/>
<path d="M59.9275 80.6288C41.2576 80.6288 26.2878 85.9734 24.5224 92.5514C23.7243 95.5018 22.8295 101.064 22.0798 106.457C32.4063 114.897 45.6348 119.976 60.0242 119.976C74.4136 119.976 87.6179 114.897 97.9686 106.457C97.1947 101.064 96.2999 95.4776 95.526 92.5514C93.7122 85.9734 78.5732 80.6288 59.9275 80.6288Z" fill="#019897"/>
<path d="M48.0774 81.3785C48.0774 81.3785 43.4341 92.0193 59.9274 92.0193C76.4208 92.0193 71.9468 81.3785 71.9468 81.3785L60 79.9758L48.0774 81.3785Z" fill="#D0EAEF"/>
<path d="M69.4075 68.2225H50.5925C53.5188 77.0738 50.8344 81.1125 50.8344 81.1125L57.3398 84.2322H62.6602L69.1657 81.1125C69.1657 81.1125 66.4813 77.0738 69.4075 68.2225Z" fill="#E2A379"/>
<path d="M79.2987 42.37C79.2987 20.0242 70.6651 14.8972 60 14.8972C49.3592 14.8972 40.7014 20.0242 40.7014 42.37C40.7014 49.9395 42.0556 55.8646 44.0871 60.4353C48.5369 70.4958 56.2515 74.0024 60 74.0024C63.7485 74.0024 71.439 70.4958 75.913 60.4353C77.9444 55.8646 79.2987 49.9395 79.2987 42.37Z" fill="#F4B382"/>
<path d="M60 14.8972C48.2225 14.8972 40 21.0883 40 43.4341C40 43.4341 60 32.3337 60 24.208V14.8972Z" fill="#F2DE7C"/>
<path d="M59.9758 14.8972C71.7533 14.8972 80 21.0883 80 43.4341C80 43.4341 60 32.3337 60 24.208L59.9758 14.8972Z" fill="#F2DE7C"/>
<path d="M41.0641 19.3712C41.0641 21.3059 40.1451 36.6868 40.1451 36.6868H79.9274C79.9274 36.6868 79.0084 21.3059 79.0084 19.3712C79.0084 18.4039 71.0036 14.1717 60.2176 14.1717C49.3349 14.1717 41.0641 18.4039 41.0641 19.3712Z" fill="#019897"/>
<path d="M50.8344 81.1124C50.8344 81.1124 47.2552 89.9879 59.9275 89.9879C72.5998 89.9879 69.1657 81.1124 69.1657 81.1124L59.9275 76.6626L50.8344 81.1124Z" fill="#E2A379"/>
<path d="M38.8634 50.2298C39.9033 56.3241 41.185 56.5901 43.0472 56.2757L41.0883 43.023C39.2261 43.3616 37.8234 44.1596 38.8634 50.2298Z" fill="#F4B382"/>
<path d="M78.9601 43.0472L77.0012 56.2999C78.8392 56.6143 80.1451 56.3241 81.185 50.2539C82.2007 44.1596 80.7981 43.3616 78.9601 43.0472Z" fill="#F4B382"/>
<path d="M42.2733 44.2805C42.1765 43.6276 42.1523 43.023 42.1765 42.5635C42.2007 41.8622 42.2974 41.4268 42.2974 41.4268L40.0242 42.2733C40.0242 42.6119 40.0242 42.9746 40.0242 43.3132C40.0242 43.3132 40.266 43.2406 40.7013 43.0955C40.6771 43.0955 40.6529 43.1197 40.6288 43.1197C40.9432 43.6518 41.3301 44.474 41.717 45.659C41.6929 45.659 42.5877 46.312 42.2733 44.2805Z" fill="#F2DE7C"/>
<path d="M77.8476 42.5635C77.8718 43.0472 77.8476 43.6276 77.7509 44.2805C77.4365 46.312 78.3071 45.659 78.3071 45.659C78.6699 44.4498 79.081 43.6518 79.3712 43.1197C79.7581 43.2648 79.9758 43.3132 79.9758 43.3132C79.9758 42.9504 79.9758 42.6119 79.9758 42.2733L77.7267 41.4268C77.7267 41.4268 77.8234 41.8622 77.8476 42.5635Z" fill="#F2DE7C"/>
<path d="M75.9855 49.6493L60 47.1826L44.0145 49.6493V60.2418H44.0387C44.0629 60.2902 44.0629 60.3628 44.0871 60.4353C48.5369 70.4958 56.2515 74.0024 60 74.0024C63.7485 74.0024 71.4389 70.4958 75.913 60.4353C75.9371 60.3628 75.9613 60.3144 75.9613 60.2418H75.9855V49.6493Z" fill="#E4F0F2"/>
<path d="M75.2841 50.7376C75.2116 50.7376 75.139 50.7134 75.0907 50.6893C74.8488 50.5683 74.7521 50.2781 74.8488 50.0363L78.4764 42.2249C78.5973 41.9831 78.8875 41.8863 79.1294 41.9831C79.3712 42.104 79.4679 42.3942 79.3712 42.636L75.7436 50.4474C75.6469 50.6167 75.4776 50.7376 75.2841 50.7376Z" fill="#E4F0F2"/>
<path d="M44.7158 50.7376C44.5224 50.7376 44.3531 50.6409 44.2805 50.4474L40.653 42.636C40.532 42.3942 40.653 42.104 40.8948 41.9831C41.1366 41.8622 41.4268 41.9831 41.5478 42.2249L45.1753 50.0363C45.2963 50.2781 45.1753 50.5683 44.9335 50.6892C44.8368 50.7134 44.7642 50.7376 44.7158 50.7376Z" fill="#E4F0F2"/>
</g>
<defs>
<clipPath id="clip0_2_54">
<rect width="120" height="120" fill="white"/>
</clipPath>
</defs>
</svg>
